svg/fluentui-system-icons/ic_fluent_location_add_up_20_filled.svg

<svg width="20" height="20" viewBox="0 0 20 20" fill="none" xmlns="http://www.w3.org/2000/svg">
<path d="M14.9497 13.955C17.6834 11.2201 17.6834 6.78601 14.9497 4.05115C12.2161 1.31628 7.78392 1.31628 5.05025 4.05115C2.31658 6.78601 2.31658 11.2201 5.05025 13.955L6.57128 15.4538L8.61408 17.4389L8.74691 17.5567C9.52168 18.1847 10.6562 18.1455 11.3861 17.4391L13.8223 15.0691L14.9497 13.955ZM12.1464 8.35355L10.5 6.70711L10.5 11.5C10.5 11.7761 10.2761 12 10 12C9.72386 12 9.5 11.7761 9.5 11.5L9.5 6.70711L7.85355 8.35355C7.65829 8.54882 7.34171 8.54882 7.14645 8.35355C6.95118 8.15829 6.95118 7.84171 7.14645 7.64645L9.64645 5.14645C9.74021 5.05268 9.86739 5 10 5C10.1326 5 10.2598 5.05268 10.3536 5.14645L12.8536 7.64645C13.0488 7.84171 13.0488 8.15829 12.8536 8.35355C12.6583 8.54882 12.3417 8.54882 12.1464 8.35355Z" fill="#212121"/>
</svg>

<svg xmlns="http://www.w3.org/2000/svg" width="20" height="20"><path d="M14.95 13.955a7.005 7.005 0 0 0 0-9.904 6.998 6.998 0 0 0-9.9 0 7.005 7.005 0 0 0 0 9.904l1.521 1.499 2.043 1.985.133.118c.775.628 1.91.588 2.64-.118l2.435-2.37 1.128-1.114Zm-2.804-5.601L10.5 6.707V11.5a.5.5 0 0 1-1 0V6.707L7.854 8.354a.5.5 0 1 1-.708-.708l2.5-2.5a.5.5 0 0 1 .708 0l2.5 2.5a.5.5 0 0 1-.708.708Z"/></svg>
